X:1
T:Title
%%score ( 1 2 )
L:1/8
Q:1/4=86
M:4/4
K:B
V:1 treble nm="Bandoneon, Bandoneon" snm="Ban."
V:2 treble 
V:1
 z8 | z8 | z8 | z8 | z8 | (3:2:4z2 .D z B2 z/4 .A3/4.B .AG | .F.FG.A (3.G/F/ z/ E2 D- | %7
 D.D/<.C/ D z/ z/4 D/4 z/ .DE/ F2 | (3:2:4z/ .F/.GF- F z/4 .F3/4 E2- [DE]2 | %9
 .D B2 .A (3:2:4B/ z/ z/4 A/4-A G.F | G2 .A/>G/ z/4 .F3/4 E2 D2 | %11
 .D/.C/ D2 .D (3:2:4.DE z/ F/- F>.F | (3:2:4z/4 G/4 z/ F/-F z/ .F/(3.D/ z/ E/- E z/ D/- D2 | z8 | %14
 z8 | z8 | z4 z2 z/ .A/B- | (3:2:4B2 G z B2 c2 z/ c/d- | (3:2:4d2 d z c2 d2 z/ c/c- | %19
 c2 c/.^B/B- (5:4:6B/AG/-G.GA- | A/-[AB]/c B2 .A2 z2 | z8 | z4 z2 (3z/ A/ B2 | %23
 z/ .G3/2 .B2 (3c2 .c2 d2 | z/ .d3/2 c z/ d/- d>c c2 | (9:8:9z/ c^B.B3/2A.GGA=B | .c B2 A z .D B2 | %27
 .A.B .AG/F/ F z/ G/- G/AG/- | G<.F D2 z/ z/4 .D/4.C D z/ z/4 D/4 | %29
 (3:2:5z .DE z F2 z/ .F/(3.G/ z/ F/- F z/ .F/ | .DE D2 z/4 .D3/4 z BA | %31
 B.AG.F .FG .A (3z/4 .G3/4F/ | E2 D2 .D/C/ D2 (3D/ z/ D/ | %33
 z .E F z/ z/4 F/4 z/ .G/F- F/ z/4 F/4 z/ .D/ | .E2 .D2 z4 | z8 | z8 | z8 | z8 | z8 | z8 | z8 | %42
 z2 (3:2:4z/ A/ z B- (3B.GG B2 | c2 .cd- d.d (3:2:2.c c2 | .d2 .cc z .c (3:2:4z/ .^B/B z | %45
 A.G (3z/ .G/ A2 z/ .Bc/- (3:2:4cB z/ A/- | A2 z2 z4 | z8 | z .AB.G .G B2 c | %49
 z .c .d2 (5:4:6.d.cc z/ d/-d | (3:2:4z c z/ c/- c z/ c/ z/ .^BB/ A>G | %51
 (3z/ .G3/2A- AB (3:2:4z .c B2 .A2 | (3z/ .D3/2B- BA .B.AG.F | %53
 .FG/ z/4 A/4- (3AGF (3z/ .E3/2D- D z/ .D/ | (5:4:6.CD-D/ z/ .DD (3z/ .E3/2F- F z/4 .F/ z/8 G/8 | %55
 F2 z/ .F/ (3:2:4z/4 D/4 z/ E/- E D2 .D | B2 .A.B (5:4:6.AGF z/ F/ z | %57
 .G.A .G/.F/E z D2 (3:2:4z/4 D/4C/ z/ | D3/2 z/4 D/4- D<.D F2 z/ .F/ (3:2:4z/4 G/4 z/ F/- | %59
 F z/ .F/ (3:2:4z/4 D/4 z/ E/-E D2 z2 |] %60
V:2
 x8 | x8 | x8 | x8 | x8 | x8 | x8 | x8 | z2 z z/ z/4 D/4- D2 z2 | z4 z2 z z/ z/4 F/4- | F2 z2 z4 | %11
 x8 | x8 | x8 | x8 | x8 | x8 | x8 | x8 | x8 | x8 | x8 | x8 | x8 | x8 | x511/64 | x8 | x8 | %28
 z z/ E/- E2 z4 | x8 | x8 | x8 | x8 | x8 | x8 | x8 | x8 | x8 | x8 | x8 | x8 | x8 | x8 | x8 | x8 | %45
 x8 | x8 | x8 | x8 | x8 | x8 | x8 | x8 | x8 | x8 | x8 | x8 | x8 | z2 z z/ E/- E2 z2 | x8 |] %60

